X: 1
T: Hambo/masurka
O: efter Paul Dahlin
Z: 2009 John Chambers <jc:trillian.mit.edu>
S: handwritten transcription from the 1970s.
M: 3/4
L: 1/8
K: D
|: "D"A>f d2 A>F | "G"G>B "D"A2- A2 \
| "A7"A>g e<c A>G | "D"F>G A<F D2- \
|  "D"[DA]>f d2 A>F | "G"G>B "D"A2- A2 \
| "A7"[AA,]>[BB,] [cC]<[AA,] [BB,]>[cC] | "D"[d2D2] [d4D4] :|
|: "G"B>d g2 g2 | "D"A>d f2 f2 \
| "A7"e>g e<c A>G | "D"F>G A<F D2 \
|  "G"B>d g2 g2 | "D"A>d f2 f2 \
| "A7"e>g e<c (3ABc | "D"d2 d4 :|
